X:1
T:Come, Come, Ye Saints
T:Come, Come, Ye Saints
T:Adapted by Jesse Tom White, Sacred Harp, 1844
T:Public Domain Courtesy of the Cyber Hymnal™
C:Adapted by Jesse Tom White, Sacred Harp, 1844
Z:Public Domain
Z:Courtesy of the Cyber Hymnal™
%%score ( 1 2 ) ( 3 4 )
L:1/8
Q:1/4=105
M:4/4
K:G
V:1 treble 
V:2 treble 
V:3 bass 
V:4 bass 
V:1
 [B,G]2 [B,G]>[CA] [DB]3 [DG] | [DF][DG][DA][DB] [Ec]4 ||[M:3/4] [DB]>[DG] [EA]4 [DG]>[DF] [DG]4 || %3
[M:4/4] [B,G]2 [B,G]>[CA] [DB]3 [DG] | [DF][DG][DA][DB] [Ec]4 ||[M:3/4] [DB]>[DG] [EA]4 | %6
 [DG]>[DF] [DG]2 Bc | [Gd][Gd] d2 c[DB] | [Dc][Dc] c2 B[DA] | [DB][DB] d2 c[DB] | %10
 [DA][DA] [DA]3 D | [DG][DF] [DG]3 [DA] | [DB][Dc] [Dd]4 | [DB]>[DG] [EA]4 | [DG]>[DF] [DG]8 |] %15
V:2
 x8 | x8 ||[M:3/4] x12 ||[M:4/4] x8 | x8 ||[M:3/4] x6 | x4 G2 | x2 D3 x | x2 D3 x | x2 D3 x | %10
 x5 D | x6 | x6 | x6 | x10 |] %15
V:3
 [G,,G,]2 [G,,G,]>[G,,G,] [G,,G,]3 [G,,B,] | [D,A,][D,E,][D,F,]G, [C,G,]4 || %2
[M:3/4] [G,,D]>[G,,B,] [C,C]4 [D,B,]>[D,A,] [G,,B,]4 || %3
[M:4/4] [G,,G,]2 [G,,G,]>[G,,G,] [G,,G,]3 [G,,B,] | [D,A,][D,E,][D,F,]G, [C,G,]4 || %5
[M:3/4] [G,,D]>[G,,B,] [C,C]4 | [D,B,]>[D,A,] [G,,B,]2 G,A, | [G,B,][G,B,] B,2 A,G, | %8
 [F,A,][F,A,] [F,A,]2 G,[D,F,] | G,G, B,2 A,G, | [D,F,][D,F,] [D,F,]3 [C,F,] | %11
 [B,,G,][A,,A,] [G,,B,]3 [D,F,] | G,[G,A,] [G,B,]4 | G,>[G,B,] [C,C]4 | [D,B,]>[F,A,] [G,,B,]8 |] %15
V:4
 x8 | x3 G, x4 ||[M:3/4] x12 ||[M:4/4] x8 | x3 G, x4 ||[M:3/4] x6 | x6 | x2 G,3 G, | x6 | %9
 G,G, G,3 G, | x6 | x6 | G, x5 | G,3/2 x9/2 | x10 |] %15

